dist/img/analytics/card_3.svg

<svg width="30" height="30" viewBox="0 0 30 30" fill="none" xmlns="http://www.w3.org/2000/svg">
<path d="M3.19015 30C2.31015 30 1.55838 29.6884 0.934853 29.0651C0.311618 28.4416 0 27.6899 0 26.8099V3.19015C0 2.31015 0.311618 1.55838 0.934853 0.934853C1.55838 0.311618 2.31015 0 3.19015 0H26.8099C27.6899 0 28.4416 0.311618 29.0651 0.934853C29.6884 1.55838 30 2.31015 30 3.19015V26.8099C30 27.6899 29.6884 28.4416 29.0651 29.0651C28.4416 29.6884 27.6899 30 26.8099 30H3.19015ZM23.681 27.3529H26.8099C26.9684 27.3529 27.0985 27.3021 27.2003 27.2003C27.3021 27.0985 27.3529 26.9684 27.3529 26.8099V23.681L23.681 27.3529ZM3.8925 27.3529H7.67294L12.9671 22.0588H15.9366L10.6425 27.3529H14.179L19.4731 22.0588H22.4422L17.1481 27.3529H20.7115L26.0056 22.0588H27.3529V3.19015C27.3529 3.03162 27.3021 2.90147 27.2003 2.79971C27.0985 2.69794 26.9684 2.64706 26.8099 2.64706H3.19015C3.03162 2.64706 2.90147 2.69794 2.79971 2.79971C2.69794 2.90147 2.64706 3.03162 2.64706 3.19015V25.6288L6.21706 22.0588H9.18662L3.8925 27.3529ZM12.6618 12.6075L8.23632 16.9888C7.99191 17.2329 7.69221 17.3568 7.33721 17.3603C6.98191 17.3635 6.67309 17.234 6.41074 16.9716C6.16632 16.7272 6.04412 16.4201 6.04412 16.0504C6.04412 15.6804 6.16632 15.3732 6.41074 15.1288L11.5451 9.99441C11.8643 9.67529 12.2365 9.51574 12.6618 9.51574C13.0871 9.51574 13.4593 9.67529 13.7784 9.99441L16.1912 12.4072L21.7637 6.83471C22.0081 6.59059 22.3106 6.46676 22.6712 6.46324C23.0321 6.46 23.3438 6.58956 23.6065 6.85191C23.8506 7.09632 23.9726 7.40059 23.9726 7.76471C23.9726 8.12882 23.8506 8.43309 23.6065 8.6775L17.3078 15.0203C16.9887 15.3394 16.6165 15.499 16.1912 15.499C15.7659 15.499 15.3937 15.3394 15.0746 15.0203L12.6618 12.6075ZM2.64706 26.8099V2.64706V27.3529V26.8099Z" fill="#2453E1"/>
</svg>

<svg width="30" height="30" viewBox="0 0 30 30" fill="none" xmlns="http://www.w3.org/2000/svg"><path d="M3.19 30c-.88 0-1.632-.312-2.255-.935A3.074 3.074 0 010 26.81V3.19C0 2.31.312 1.558.935.935A3.074 3.074 0 013.19 0h23.62c.88 0 1.632.312 2.255.935S30 2.31 30 3.19v23.62c0 .88-.312 1.632-.935 2.255A3.074 3.074 0 0126.81 30H3.19zm20.491-2.647h3.129c.158 0 .289-.05.39-.153a.529.529 0 00.153-.39v-3.13l-3.672 3.672zm-19.788 0h3.78l5.294-5.294h2.97l-5.294 5.294h3.536l5.294-5.294h2.97l-5.295 5.294h3.564l5.294-5.294h1.347V3.19a.529.529 0 00-.153-.39.529.529 0 00-.39-.153H3.19a.529.529 0 00-.39.153.529.529 0 00-.153.39v22.44l3.57-3.57h2.97l-5.294 5.294zm8.769-14.746L8.236 16.99a1.242 1.242 0 01-.899.371 1.25 1.25 0 01-.926-.388 1.25 1.25 0 01-.367-.922c0-.37.122-.677.367-.921l5.134-5.135c.32-.319.691-.478 1.117-.478.425 0 .797.16 1.116.478l2.413 2.413 5.573-5.572c.244-.244.547-.368.907-.372.361-.003.673.127.936.389.244.244.366.549.366.913s-.122.668-.366.913l-6.3 6.342c-.318.32-.69.479-1.116.479-.425 0-.797-.16-1.116-.479l-2.413-2.412zM2.647 26.81V2.647v24.706-.543z" fill="#2453E1"/></svg>98191 17.3635 6.67309 17.234 6.41074 16.9716C6.16632 16.7272 6.04412 16.4201 6.04412 16.0504C6.04412 15.6804 6.16632 15.3732 6.41074 15.1288L11.5451 9.99441C11.8643 9.67529 12.2365 9.51574 12.6618 9.51574C13.0871 9.51574 13.4593 9.67529 13.7784 9.99441L16.1912 12.4072L21.7637 6.83471C22.0081 6.59059 22.3106 6.46676 22.6712 6.46324C23.0321 6.46 23.3438 6.58956 23.6065 6.85191C23.8506 7.09632 23.9726 7.40059 23.9726 7.76471C23.9726 8.12882 23.8506 8.43309 23.6065 8.6775L17.3078 15.0203C16.9887 15.3394 16.6165 15.499 16.1912 15.499C15.7659 15.499 15.3937 15.3394 15.0746 15.0203L12.6618 12.6075ZM2.64706 26.8099V2.64706V27.3529V26.8099Z" fill="#2453E1"/>
</svg>
